X:1
T:Je Tev Veux
T:Je Te Veux
T:for Cello Trio
T:Erik Satie
T:Arr. Grant Maiorana
%%score 1 2 3
L:1/8
M:3/4
K:C
V:1 bass nm="Violoncello" snm="Vc."
V:2 bass nm="Violoncello" snm="Vc."
V:3 bass nm="Violoncello" snm="Vc."
V:1
 x2[Q:1/4=140] E2 G2 | D6 | A4 E2 | !fermata!G6- | G2 E,2 G,2 | D6 | C4 E2 | B,6 | A,6 | B,6 | %10
 A,4 E,2 | B,6- | B,2 D,2 E,2 | G,6- | G,2 D,2 E,2 | A,6- | A,2 D,2 E,2 | G,4 F,2- | F,2 G,4 | %19
 E,6 | D,2 E,2 G,2 | D6 | C4 E2 | B,6 | A,6 | B,6 | A,4 G,2 | A,6 | D,2 F,2 G,2 | A,2 B,2 C2 | %30
 D2 E2 F2 | G2 E2 C2 | A,2 C2 E2 |"^rit." G4 F2 | E2 D4 | C2 D2 E2 | ^F2 B2 c2 |[K:G] E6- | %38
 E2 E2 F2 | D6- | D2 F2 G2 | D4 D2- | D2 D4 | E6 | D2 B,2 C2 | E6- | E2 E2 F2 | D6- | D2 B,2 G,2 | %49
 F,4 F,2- | F,2 F,4 | B,6 | D2 B,2 C2 | E6- | E2 E2 F2 | D6- | D2 F,2 G,2 | D4 D2- | D2 D4 | F6 | %60
 E2 D2 B,2 | E,6- | E,2 E,2 F,2 | D,6- | D,2 G,2 F,2 |"^rit." E,2 G,2 C2 | D6 | G6- | %68
 !fermata!G z E,2 G,2 |[K:C] D6 | C4 E2 | B,6 | A,6 | B,6 | A,4 E,2 | B,6- | B,2 D,2 E,2 | G,6- | %78
 G,2 D,2 E,2 | A,6- | A,2 D,2 E,2 |[K:C] G,4 F,2- | F,2 G,4 | E,6 | D,2 E,2 G,2 | D6 | C4 E2 | %87
 B,6 | A,6 | B,6 | A,4 G,2 | A,6 | D,2 F,2 G,2 | A,2 B,2 C2 | D2 E2 F2 | G2 E2 C2 | A,2 C2 E2 | %97
"^rit." G4 F2 | E2 D4 | C6 | C,D, E,F, G,A, |:[K:F] [E,B,-D-]2 [B,D]>[B,D] [B,D]2 | z2 G,2- G,>E, | %103
 [D,A,-C-]2 [A,C]>[A,C] [A,C]2 | z2 F,2- F,>D, | B,4 B,2- | B,2 B,2- B,>B, | A,2- A,>G, F,2- | %108
 F,>D, C,2 E,G, | [E,B,-D-]2 [B,D]>[B,D] [B,D]2 | z2 G,2- G,>E, | [D,A,-C-]2 [A,C]>[A,C] [A,C]2 | %112
 z2 F,2- F,>D, | B,2 A,2 B,2 |"^rit." A,2 G,2 B,2 | A,4 G,2 |1 F,2 E,F, G,A, :|2 %117
 F,2- F,>F, !fermata!F,2 ||[K:Bb] F,4 G,2- | G,2 A,4 | B,4 C2- | C2 D4 | F2 E2 D2 | C2 G,2 A,2 | %124
 F6- | F4 z2 | F,4 G,2- | G,2 A,4 | B,4 C2- | C2 D4 | B4 A2 | G4 A2 | G6 | F6 | F,4 G,2- | %135
 G,2 A,4 | B,4 C2- | C2 D4 | F2 E2 D2 | C2 G,2 A,2 | F6- | F4 z2 | F,4 G,2- | G,2 A,4 | B,4 C2- | %145
 C2 D4 | G,4 B,2 | A,4 D2 | B,6 | C,D, =E,F, G,A, |[K:F] [E,B,-D-]2 [B,D]>[B,D] [B,D]2 | %151
 z2 G,2- G,>E, | [D,A,-C-]2 [A,C]>[A,C] [A,C]2 | z2 F,2- F,>D, | B,4 B,2- | B,2 B,2- B,>B, | %156
 A,2- A,>G, F,2- | F,>D, C,2 E,G, | [E,B,-D-]2 [B,D]>[B,D] [B,D]2 | z2 G,2- G,>E, | %160
 [D,A,-C-]2 [A,C]>[A,C] [A,C]2 | z2 F,2- F,>D, | B,2 A,2 B,2 |"^rit." A,2 G,2 B,2 | A,4 G,2 | %165
 !fermata!F,2 E,2 G,2 | D6 | C4 E2 | =B,6 | A,6 | =B,6 | A,4 E,2 | =B,6- | B,2 D,2 E,2 | G,6- | %175
 G,2 D,2 E,2 | A,6- | A,2 D,2 E,2 | G,4 F,2- | F,2 G,4 | E,6 | D,2 E,2 G,2 | D6 | C4 E2 | =B,6 | %185
 A,6 | =B,6 | A,4 G,2 | A,6 | D,2 F,2 G,2 | A,2 =B,2 C2 | D2 E2 F2 | G2 E2 C2 | A,2 C2 E2 | %194
"^rit." G4 F2 | E2 D4 | C2 D2 E2 | ^F2 =B2 c2 | E6- |[K:G] E2 E2 F2 | D6- | D2 F2 G2 | D4 D2- | %203
 D2 D4 | E6 | D2 B,2 C2 | E6- | E2 E2 F2 | D6- | D2 B,2 G,2 | F,4 F,2- | F,2 F,4 | B,6 | %213
 D2 B,2 C2 | E6- | E2 E2 F2 | D6- | D2 F,2 G,2 | D4 D2- | D2 D4 | F6 | E2 D2 B,2 | E,6- | %223
 E,2 E,2 F,2 | D,6- | D,2 G,2 F,2 |"^rit." E,2 G,2 C2 | D6 | G6- | !fermata!G z E,2 G,2 |[K:C] D6 | %231
[K:C] C4 E2 | B,6 | A,6 | B,6 | A,4 E,2 | B,6- | B,2 D,2 E,2 | G,6- | G,2 D,2 E,2 | A,6- | %241
 A,2 D,2 E,2 | G,4 F,2- | F,2 G,4 | E,6 | D,2 E,2 G,2 | D6 | C4 E2 | B,6 | A,6 | B,6 | A,4 G,2 | %252
 A,6 | D,2 F,2 G,2 | A,2 B,2 C2 | D2 E2 F2 | G2 E2 C2 | A,2 C2 E2 | G4 F2 | E2 D4 | C6- | %261
 C2 D2 E2 |"^rit." B,4 G,2 | D4 C2 | G6 | C6- | C2 z4 |] %267
V:2
 z6 | A,6 | C4 E,2 | !fermata![G,E]6- | [G,E]2 z4 | !tenuto!C,2 .G,2 .G,2 | !tenuto!G,2 .G,2 .G,2 | %7
 !tenuto!C,2 .G,2 .G,2 | !tenuto!G,2 .G,2 .G,2 |"^sim." C,2 G,2 G,2 | G,2 G,2 G,2 | D,2 G,2 G,2 | %12
 G,2 z4 | D,2 F,2 F,2 | G,2 z4 | D,2 F,2 F,2 | G,2 z4 | D,2 F,4 | G,,4 F,2 | E,2 C2 C2 | D,2 z4 | %21
 A,,2 G,2 G,2 | G,2 G,2 G,2 | C,2 G,2 G,2 | G,2 G,2 G,2 | C,2 G,2 G,2 | G,2 G,2 G,,2 | %27
 D,2 F,2 F,2 | F,,2 z4 | G,2 A,2 G,2 | F,2 B,2 C2 | E,2 C2 A,2 | ^F,2 A,2 C2 |"^rit." G,2 E2 A,2 | %34
 F,2 G,2 B,2 | C,6 | D,,2 z2 E,,2 |[K:G] A,,2 C2 C2 | D,,2 z4 | G,,2 B,2 B,2 | D,,2 F,2 G,2 | %41
 A,,2 [F,C]4 | [F,C]4 [F,C]2 | G,,2 B,2 B,2 | D,,2 z4 | A,,2 C2 C2 | D,,2 z4 | G,,2 B,2 B,2 | %48
 D,,2 B,,2 G,,2 | F,2 [^A,,E,]4 | [^A,,E,]4 [A,,E,]2 | D,2 F,2 F,2 | C,2 G,2 B,,2 | A,,2 C2 C2 | %54
 D,,2 z4 | G,,2 B,2 B,2 | D,,2 F,2 G,2 | A,,2 [F,C]4 | [F,C]4 [F,C]2 | G,,2 B,2 B,2 | D,,2 z4 | %61
 A,,2 C2 C2 | D,,2 z4 | G,,2 B,2 B,2 | D,,2 z4 |"^rit." [A,C]4 z2 | _A,2 [F,C]2 [F,C]2 | %67
 G,,2 [=F,D]2 E2 | !fermata![=F,D] z z4 |[K:C] C,2 G,2 G,2 | G,2 G,2 G,2 | C,2 G,2 G,2 | %72
 G,2 G,2 G,2 | C,2 G,2 G,2 | G,2 G,2 G,2 | D,2 G,2 G,2 | G,2 z4 | D,2 F,2 F,2 | G,2 z4 | %79
 D,2 F,2 F,2 | G,2 z4 |[K:C] D,2 F,4 | G,,4 F,2 | E,2 C2 C2 | D,2 z4 | A,,2 G,2 G,2 | G,2 G,2 G,2 | %87
 C,2 G,2 G,2 | G,2 G,2 G,2 | C,2 G,2 G,2 | G,2 G,2 G,,2 | D,2 F,2 F,2 | F,,2 z4 | G,2 A,2 G,2 | %94
 F,2 B,2 C2 | E,2 C2 A,2 | ^F,2 A,2 C2 |"^rit." G,2 E2 A,2 | F,2 G,2 B,2 | C,6- | C,2 z4 |: %101
[K:F] G,2 C4 | C,2 z4 | D,2- D,>_D, C,2 | C,2 z4 | _G,2 E4 | G,2 =E4 | F,2 C4 | C,2 z2 z2 | %109
 G,2 C4 | C,2 z4 | D,2- D,>_D, C,2 | C,2 z4 | _D,2 F,2 F,2 |"^rit." C,2 =F,2 F,2 | C,2 E,4 |1 %116
 F,2 z4 :|2 F2- F>F !fermata!F2 ||[K:Bb] B,2 D2 B,2 | F,2 A,2 D2 | B,2 D2 B,2 | F,2 B,2 F2 | %122
 C2 [E,A,]2 z2 | F,6 | C2 E2 E2 | F,2 E2 E2 | B,2 D2 B,2 | F,2 A,2 D2 | B,2 D2 B,2 | F,2 B,2 F2 | %130
 C,2 [G,,E,B,]2 z2 | F,2 E2 z2 | C2 E2 E2 | F,2 E2 E2 | B,2 D2 B,2 | F,2 A,2 D2 | B,2 D2 B,2 | %137
 F,2 B,2 F2 | C2 [E,A,]2 z2 | F,6 | C2 E2 E2 | F,2 E2 E2 | B,2 D2 B,2 | F,2 A,2 D2 | B,2 D2 B,2 | %145
 F,2 B,2 F2 | E,2 C2 z2 | F,2 E2 z2 | B,2 F,2 F,2 | B,,4 A,,2 |[K:F] G,2 C4 | C,2 z4 | %152
 D,2- D,>_D, C,2 | C,2 z4 | _G,2 E4 | G,2 =E4 | F,2 C4 | C,2 z2 z2 | G,2 C4 | C,2 z4 | %160
 D,2- D,>_D, C,2 | C,2 z4 | _D,2 F,2 F,2 |"^rit." C,2 =F,2 F,2 | C,2 E,4 | !fermata!F,2 z4 | %166
 C,2 G,2 G,2 | G,2 G,2 G,2 | C,2 G,2 G,2 | G,2 G,2 G,2 | C,2 G,2 G,2 | G,2 G,2 G,2 | D,2 G,2 G,2 | %173
 G,2 z4 | D,2 F,2 F,2 | G,2 z4 | D,2 F,2 F,2 | G,2 z4 | D,2 F,4 | G,,4 F,2 | E,2 C2 C2 | D,2 z4 | %182
 A,,2 G,2 G,2 | G,2 G,2 G,2 | C,2 G,2 G,2 | G,2 G,2 G,2 | C,2 G,2 G,2 | G,2 G,2 G,,2 | %188
 D,2 F,2 F,2 | F,,2 z4 | G,2 A,2 G,2 | F,2 =B,2 C2 | E,2 C2 A,2 | ^F,2 A,2 C2 |"^rit." G,2 E2 A,2 | %195
 F,2 G,2 =B,2 | C,6 | D,,2 z2 E,,2 | A,,2 C2 C2 |[K:G] D,,2 z4 | G,,2 B,2 B,2 | D,,2 F,2 G,2 | %202
 A,,2 [F,C]4 | [F,C]4 [F,C]2 | G,,2 B,2 B,2 | D,,2 z4 | A,,2 C2 C2 | D,,2 z4 | G,,2 B,2 B,2 | %209
 D,,2 B,,2 G,,2 | F,2 [^A,,E,]4 | [^A,,E,]4 [A,,E,]2 | D,2 F,2 F,2 | C,2 G,2 B,,2 | A,,2 C2 C2 | %215
 D,,2 z4 | G,,2 B,2 B,2 | D,,2 F,2 G,2 | A,,2 [F,C]4 | [F,C]4 [F,C]2 | G,,2 B,2 B,2 | D,,2 z4 | %222
 A,,2 C2 C2 | D,,2 z4 | G,,2 B,2 B,2 | D,,2 z4 |"^rit." [A,C]4 z2 | _A,2 [F,C]2 [F,C]2 | %228
 G,,2 [=F,D]2 E2 | !fermata![=F,D] z z4 |[K:C] C,2 G,2 G,2 |[K:C] G,2 G,2 G,2 | C,2 G,2 G,2 | %233
 G,2 G,2 G,2 | C,2 G,2 G,2 | G,2 G,2 G,2 | D,2 G,2 G,2 | G,2 z4 | D,2 F,2 F,2 | G,2 z4 | %240
 D,2 F,2 F,2 | G,2 z4 | D,2 F,4 | G,,4 F,2 | E,2 C2 C2 | D,2 z4 | A,,2 G,2 G,2 | G,2 G,2 G,2 | %248
 C,2 G,2 G,2 | G,2 G,2 G,2 | C,2 G,2 G,2 | G,2 G,2 G,,2 | D,2 F,2 F,2 | F,,2 z4 | G,2 A,2 G,2 | %255
 F,2 B,2 C2 | E,2 C2 A,2 | ^F,2 A,2 C2 | G,2 z2 A,2 | F,2 G,2 B,2 | C,2 G,2 G,2 | C,2 z4 | %262
"^rit." E,2 G,2 z2 | F,2 C2 C2 | D,2 F2 F2 | [C,C]2 [C,G,]2 [C,G,]2 | [C,C]2 z4 |] %267
V:3
 z6 | [G,,F,]6 | [G,,E,A,]6 | !fermata![G,,F,B,]6- | [G,,F,B,]2 z4 | !tenuto!C,,2 .E,2 .E,2 | %6
 !tenuto!G,,2 .E,2 .E,2 | !tenuto!C,,2 .E,2 .E,2 | !tenuto!G,,2 .E,2 .E,2 |"^sim." C,,2 E,2 E,2 | %10
 G,,2 E,2 E,2 | D,,2 F,2 F,2 | G,,2 z4 | D,,2 B,,2 B,,2 | G,,2 z4 | D,,2 B,,2 B,,2 | G,,2 z4 | %17
 D,,2 B,,4 | G,,4 B,,2 | C,,2 G,2 G,2 | B,,2 z4 | A,,2 E,2 E,2 | G,,2 E,2 E,2 | C,,2 E,2 E,2 | %24
 G,,2 E,2 E,2 | C,,2 E,2 E,2 | G,,2 E,2 G,,2 | D,,2 C,2 C,2 | F,,2 z4 | G,,2 F,2 E,2 | %30
 F,,2 G,2 A,2 | E,,2 G,2 A,2 | ^F,,2 ^F,2 A,2 |"^rit." G,,2 C2 A,,2 | F,,2 G,,2 F,2 | C,,6 | %36
 D,,2 z2 E,,2 |[K:G] A,,2 F,2 F,2 | D,,2 z4 | G,,2 G,2 G,2 | D,,2 z4 | A,,2 [F,,C,]4 | %42
 D,,2 [F,,C,]4 | G,,2 G,2 G,2 | D,,2 z4 | A,,2 F,2 F,2 | D,,2 z4 | G,,2 G,2 G,2 | D,,2 z4 | %49
 F,,2 z4 | ^C,2 z4 | D,,2 D,2 D,2 | C,,2 E,2 B,,2 | A,,2 F,2 F,2 | D,,2 z4 | G,,2 G,2 G,2 | %56
 D,,2 z4 | A,,2 [F,,C,]4 | D,,2 [F,,C,]4 | G,,2 G,2 G,2 | D,,2 z4 | A,,2 F,2 F,2 | D,,2 z4 | %63
 G,,2 G,2 G,2 | D,,2 z4 |"^rit." [A,,G,]2 z4 | _A,,2 [_A,C]4 | G,,2 [A,C]2 [G,B,]2 | %68
 !fermata![G,,G,] z z4 |[K:C] C,,2 E,2 E,2 | G,,2 E,2 E,2 | C,,2 E,2 E,2 | G,,2 E,2 E,2 | %73
 C,,2 E,2 E,2 | G,,2 E,2 E,2 | D,,2 F,2 F,2 | G,,2 z4 | D,,2 B,,2 B,,2 | G,,2 z4 | D,,2 B,,2 B,,2 | %80
 G,,2 z4 |[K:C] D,,2 B,,4 | G,,4 B,,2 | C,,2 G,2 G,2 | B,,2 z4 | A,,2 E,2 E,2 | G,,2 E,2 E,2 | %87
 C,,2 E,2 E,2 | G,,2 E,2 E,2 | C,,2 E,2 E,2 | G,,2 E,2 G,,2 | D,,2 C,2 C,2 | F,,2 z4 | %93
 G,,2 F,2 E,2 | F,,2 G,2 A,2 | E,,2 G,2 A,2 | ^F,,2 ^F,2 A,2 |"^rit." G,,2 C2 A,,2 | %98
 F,,2 G,,2 F,2 | C,,6- | C,,2 z4 |:[K:F] [G,,G,]2 B,4 | C,,2 z4 | F,,2 [A,C]4 | C,,2 z4 | %105
 _G,2 _D4 | G,2 =C4 | F,2 A,4 | C,,2 z2 z2 | [G,,G,]2 B,4 | C,,2 z4 | F,,2 [A,C]4 | C,,2 z4 | %113
 _D,,2 _D,2 D,2 |"^rit." C,2 =D,2 D,2 | C,2 B,,4 |1 F,,2 z4 :|2 F,,2- F,,>F,, !fermata!F,,2 || %118
[K:Bb] B,,6 | F,,2 z2 B,2 | B,,6 | F,,2 B,,2 B,2 | C,6 | F,,6 | C,2 A,2 A,2 | F,,2 A,2 A,2 | B,,6 | %127
 F,,2 z2 B,2 | B,,6 | F,,2 B,,2 B,2 | C,6 | F,,2 B,2 z2 | C,2 B,2 B,2 | F,,2 A,2 A,2 | B,,6 | %135
 F,,2 z2 B,2 | B,,6 | F,,2 B,,2 B,2 | C,6 | F,,6 | C,2 A,2 A,2 | F,,2 A,2 A,2 | B,,6 | %143
 F,,2 z2 B,2 | B,,6 | F,,2 B,,2 B,2 | E,,2 B,2 z2 | F,,2 A,2 z2 | B,,2 D,2 D,2 | B,,4 A,,2 | %150
[K:F] [G,,G,]2 B,4 | C,,2 z4 | F,,2 [A,C]4 | C,,2 z4 | _G,2 _D4 | G,2 =C4 | F,2 A,4 | C,,2 z2 z2 | %158
 [G,,G,]2 B,4 | C,,2 z4 | F,,2 [A,C]4 | C,,2 z4 | _D,,2 _D,2 D,2 |"^rit." C,2 =D,2 D,2 | C,2 B,,4 | %165
 !fermata!F,,2 z4 | C,,2 E,2 E,2 | G,,2 E,2 E,2 | C,,2 E,2 E,2 | G,,2 E,2 E,2 | C,,2 E,2 E,2 | %171
 G,,2 E,2 E,2 | D,,2 F,2 F,2 | G,,2 z4 | D,,2 =B,,2 B,,2 | G,,2 z4 | D,,2 =B,,2 B,,2 | G,,2 z4 | %178
 D,,2 =B,,4 | G,,4 =B,,2 | C,,2 G,2 G,2 | =B,,2 z4 | A,,2 E,2 E,2 | G,,2 E,2 E,2 | C,,2 E,2 E,2 | %185
 G,,2 E,2 E,2 | C,,2 E,2 E,2 | G,,2 E,2 G,,2 | D,,2 C,2 C,2 | F,,2 z4 | G,,2 F,2 E,2 | %191
 F,,2 G,2 A,2 | E,,2 G,2 A,2 | ^F,,2 ^F,2 A,2 |"^rit." G,,2 C2 A,,2 | F,,2 G,,2 F,2 | C,,6 | %197
 D,,2 z2 E,,2 | A,,2 ^F,2 F,2 |[K:G] D,,2 z4 | G,,2 G,2 G,2 | D,,2 z4 | A,,2 [F,,C,]4 | %203
 D,,2 [F,,C,]4 | G,,2 G,2 G,2 | D,,2 z4 | A,,2 F,2 F,2 | D,,2 z4 | G,,2 G,2 G,2 | D,,2 z4 | %210
 F,,2 z4 | ^C,2 z4 | D,,2 D,2 D,2 | C,,2 E,2 B,,2 | A,,2 F,2 F,2 | D,,2 z4 | G,,2 G,2 G,2 | %217
 D,,2 z4 | A,,2 [F,,C,]4 | D,,2 [F,,C,]4 | G,,2 G,2 G,2 | D,,2 z4 | A,,2 F,2 F,2 | D,,2 z4 | %224
 G,,2 G,2 G,2 | D,,2 z4 |"^rit." [A,,G,]2 z4 | _A,,2 [_A,C]4 | G,,2 [A,C]2 [G,B,]2 | %229
 !fermata![G,,G,] z z4 |[K:C] C,,2 E,2 E,2 |[K:C] G,,2 E,2 E,2 | C,,2 E,2 E,2 | G,,2 E,2 E,2 | %234
 C,,2 E,2 E,2 | G,,2 E,2 E,2 | D,,2 F,2 F,2 | G,,2 z4 | D,,2 B,,2 B,,2 | G,,2 z4 | D,,2 B,,2 B,,2 | %241
 G,,2 z4 | D,,2 B,,4 | G,,4 B,,2 | C,,2 G,2 G,2 | B,,2 z4 | A,,2 E,2 E,2 | G,,2 E,2 E,2 | %248
 C,,2 E,2 E,2 | G,,2 E,2 E,2 | C,,2 E,2 E,2 | G,,2 E,2 G,,2 | D,,2 C,2 C,2 | F,,2 z4 | %254
 G,,2 F,2 E,2 | F,,2 G,2 A,2 | E,,2 G,2 A,2 | ^F,,2 ^F,2 A,2 | G,,2 z2 A,,2 | G,,2 A,,2 F,2 | %260
 C,,2 E,2 E,2 | C,,2 z4 |"^rit." E,,2 E,2 z2 | F,,2 A,2 A,2 | D,,2 B,2 B,2 | %265
 [C,,C,]2 [G,,E,]2 [G,,E,]2 | [C,,C,]2 z4 |] %267

